images/happy-customers-img.svg

<svg width="48" height="48" xmlns="http://www.w3.org/2000/svg">
 <defs>
  <clipPath id="clip0_11005_87">
   <rect id="svg_1" x="0.5" y="0" fill="white" height="48" width="48"/>
  </clipPath>
 </defs>
 <g>
  <title>background</title>
  <rect fill="none" id="canvas_background" height="50" width="50" y="-1" x="-1"/>
 </g>
 <g>
  <title>Layer 1</title>
  <g id="svg_2" clip-path="url(#clip0_11005_87)">
   <path id="svg_3" fill="#00A0C1" d="m44.1503,22.2822c-0.5755,0.0042 -1.1455,0.114 -1.6828,0.3242l-5.7403,-4.7847c0.1413,-0.5216 0.2418,-1.0628 0.2418,-1.6331c0,-3.3783 -2.6667,-6.0936 -5.9845,-6.0936c-3.3177,0 -5.9844,2.7153 -5.9844,6.0936c0,0.9652 0.2394,1.8646 0.6272,2.6739l-6.9636,8.3799c-0.2787,-0.0531 -0.5614,-0.0817 -0.845,-0.0853c-0.4285,0 -0.833,0.0731 -1.2256,0.1803l-6.1352,-6.2471c0.1077,-0.3973 0.1795,-0.8093 0.1795,-1.2456c0,-2.7006 -2.13527,-4.8748 -4.78758,-4.8748c-2.65231,0 -4.78756,2.1742 -4.78756,4.8748c0,2.7007 2.13525,4.8749 4.78756,4.8749c0.42849,0 0.83304,-0.0731 1.22562,-0.1803l6.13526,6.2471c-0.1151,0.405 -0.1755,0.824 -0.1795,1.2456c0,2.7007 2.1352,4.8749 4.7875,4.8749c2.6523,0 4.7876,-2.1742 4.7876,-4.8749c0,-0.5777 -0.1149,-1.1213 -0.2944,-1.6356l6.973,-8.3896c0.5434,0.1608 1.106,0.2754 1.6996,0.2754c0.9447,-0.0053 1.8745,-0.2401 2.7122,-0.6849l5.7427,4.7847c-0.0451,0.256 -0.0707,0.5151 -0.0766,0.7751c0,2.7007 2.1352,4.8749 4.7875,4.8749c2.6523,0 4.7876,-2.1742 4.7876,-4.8749c0,-2.7007 -2.1353,-4.8749 -4.7876,-4.8749z"/>
  </g>
 </g>
</svg>

<svg width="49" height="48" viewBox="0 0 49 48" fill="none" xmlns="http://www.w3.org/2000/svg">
<g clip-path="url(#clip0_11005_87)">
<path d="M44.1503 22.2822C43.5748 22.2864 43.0048 22.3962 42.4675 22.6064L36.7272 17.8217C36.8685 17.3001 36.969 16.7589 36.969 16.1886C36.969 12.8103 34.3023 10.095 30.9845 10.095C27.6668 10.095 25.0001 12.8103 25.0001 16.1886C25.0001 17.1538 25.2395 18.0532 25.6273 18.8625L18.6637 27.2424C18.385 27.1893 18.1023 27.1607 17.8187 27.1571C17.3902 27.1571 16.9857 27.2302 16.5931 27.3374L10.4579 21.0903C10.5656 20.693 10.6374 20.281 10.6374 19.8447C10.6374 17.1441 8.50213 14.9699 5.84982 14.9699C3.19751 14.9699 1.06226 17.1441 1.06226 19.8447C1.06226 22.5454 3.19751 24.7196 5.84982 24.7196C6.27831 24.7196 6.68286 24.6465 7.07544 24.5393L13.2107 30.7864C13.0956 31.1914 13.0352 31.6104 13.0312 32.032C13.0312 34.7327 15.1664 36.9069 17.8187 36.9069C20.471 36.9069 22.6063 34.7327 22.6063 32.032C22.6063 31.4543 22.4914 30.9107 22.3119 30.3964L29.285 22.0068C29.8283 22.1676 30.3909 22.2822 30.9845 22.2822C31.9292 22.2769 32.859 22.0421 33.6967 21.5973L39.4394 26.382C39.3943 26.638 39.3687 26.8971 39.3628 27.1571C39.3628 29.8578 41.498 32.032 44.1503 32.032C46.8027 32.032 48.9379 29.8578 48.9379 27.1571C48.9379 24.4564 46.8027 22.2822 44.1503 22.2822Z" fill="#00A0C1"/>
</g>
<defs>
<clipPath id="clip0_11005_87">
<rect width="48" height="48" fill="white" transform="translate(0.5)"/>
</clipPath>
</defs>
</svg>
